X: 10161
M: C
L: 1/8
K: D
V: 1 staves=3
|:\
|:!f!\
f2 f>f f2 gf | edef e2 A2 | f2 f>f f2 ed | e2 a>a agfe |\
d2 d>c B>c dB | A2 d>e f2 ed | B>c d>B AdAF | A2 d>d d2 z2 :|
V: 2
|:\
|:\
d2 d>d d2 ed | cBcd c2 A2 | d2 d>d d2 cB | c2 c>c cedA |\
V: 3 clef=bass middle=d
|:\
d2 z2 d2 z2 | d2 f2 a2 d'2 | d2 z2 d2 z2 | A2 A>A A2 z2 |\
d2 z2 d2 z2 | d2 f2 a2 d'2 | d4 d4 | d2 d>d d2 z2 :|
|:\
d2 d>d d2 z2 | A2 A>A A2 z2 | d2 d>d d2 z2 | A2 A>A A2 z2 |\
d2 z2 d2 d2 | d2 f>a d'2 z2 | d4 d4 | d2 d>d d2 z2 :|


